X:179
M:6/8
L:1/8
K:D
M:3/8
L:1/8
"Largo"
d/e/|f2d|B2 c/d/|e2c|A2 A|
M:6/8
L:1/8
"Allegreto"
dcd BcA|BA^G A2A|dcd Bcd|ece cde|fgf efd|edc d3:|

